X:1
T:The Barley Mow
C:Traditional
M:6/8
L:1/8
Q:3/8=112
K:D
|:D2D E2E|F2G AGF|D2D FED|EFG FED|D2D E2E|F2A dcB|AGF EFG|FED D3:|
